static/assets/images/exchanges/pangolin.svg

<svg width="282" height="256" viewBox="0 0 282 256" fill="none" xmlns="http://www.w3.org/2000/svg">
<path d="M147.264 41.8912L204.724 0.0495825L214.423 29.8429L147.264 78.7673V41.8861V41.8912Z" fill="#FFC800"/>
<path d="M157.731 86.8057L229.303 34.6675L218.032 0.0304635L255.873 0L281.6 79.0579L214.441 127.972L157.731 86.8057ZM147.232 94.8176L214.274 143.519L147.262 192.864L147.232 94.8176ZM147.277 208.533L201.933 168.717L214.421 207.076L147.262 256L147.277 208.533Z" fill="#FFC800"/>
<path d="M134.339 41.8912L76.8785 0.0495825L67.1749 29.8429L134.339 78.7673V41.8861V41.8912Z" fill="#FFC800"/>
<path d="M123.869 86.8057L52.2815 34.6675L63.5524 0.0304635L25.7223 0L0 79.0579L67.1589 127.972L123.869 86.8057ZM134.368 94.8176L67.3111 143.519L134.338 192.864L134.368 94.8176ZM134.323 208.533L79.6523 168.717L67.1741 207.076L134.338 256L134.323 208.533Z" fill="#FFC800"/>
</svg>

<svg xmlns="http://www.w3.org/2000/svg" fill="none" viewBox="0 0 282 256"><path fill="#FFC800" d="M147.264 41.891 204.724.05l9.699 29.793-67.159 48.924v-36.88z"/><path fill="#FFC800" d="m157.731 86.806 71.572-52.138L218.032.03 255.873 0 281.6 79.058l-67.159 48.914zm-10.499 8.012 67.042 48.701-67.012 49.345zm.045 113.715 54.656-39.816 12.488 38.359L147.262 256zM134.339 41.891 76.879.05l-9.704 29.793 67.164 48.924v-36.88z"/><path fill="#FFC800" d="M123.869 86.806 52.282 34.668 63.551.03 25.722 0 0 79.058l67.159 48.914zm10.499 8.012-67.057 48.701 67.027 49.345zm-.045 113.715-54.67-39.816-12.479 38.359L134.338 256z"/></svg>
